X:1
T:Capriccio No. 4
T:Capriccio No. 4 in D minor
T:from: "11 Capricci for Solo Cello" (Ed. by Erik Hamrefors) Arrangement for Solo Flute 
T:Joseph Dall'Abaco (1710-1805) arr. Felix Scharpf 
T:twoflutes 2020 / Felix Scharpf
C:Dall'Abaco, Joseph
Z:twoflutes 2020 / Felix Scharpf
L:1/8
Q:1/4=190
M:2/4
K:F
V:1 treble nm="Flöte" snm="Fl."
V:1
!mf!"^(rubato)" (dfa).d' |!<(! !tenuto!A(d'c'=b) | .c'(e^f).c' | !tenuto!G(^fg!<)!a) | %4
!f! .b!tenuto!d(gb) | !tenuto!c(ba)!tenuto!c | (d=cB).^g |!>(! !tenuto!A(e=ga) | (^c'e').e.g!>)! | %9
!mf! !tenuto!D!>(!(^fa).c | !tenuto!B.g!tenuto!A.c' | .b!tenuto!G.d'.a | .bd(gb)!>)! | %13
!mp! !tenuto!c!<(!(ge').b | !tenuto!a(e'f')!tenuto!a | !tenuto!c(f'e'd') | .e'(^ce)!tenuto!G!<)! | %17
!mf! (FAd).f | .a!>(!(d'=ba) | (^g=b)(df) | (=Bd)(^GB)!>)! |!p! (E!<(!^G=Bd) | (e^g).=b.d | %23
 !tenuto!c.e'!tenuto!d!<)!!f!.f' |[Q:1/4=120]{!>!!fermata!e} !fermata!c'2 !fermata!=b2 | %25
 !fermata!a2[Q:1/4=190]!>(! (ce) | .a.d(=B^g) |[Q:1/4=40] (!>!A/!>)!e/[Q:1/4=190]!mp! a3) :: %28
 (f!<(!ac').f' | !tenuto!c(f'e'f') | .g'.b.e!<)!!f!!tenuto!C | !tenuto!F(cfg) | %32
 !tenuto!a.c'!tenuto!A.c' | !tenuto!B.d'(^fg) | .b(dgb) | !tenuto!B.c'(ef) | .a(cf).a | %37
 !tenuto!G.b!tenuto!e.b | (afd=B) |!<(! (c_eac') | ._e'(c'ag)!<)! | %41
!f! !tenuto!D!mp!(^f!>(!dc)!>)! | !tenuto!B.d'!tenuto!A.c' | .b(dgb) |!<(! (d'e'f'g')!<)! | %45
 !tenuto!A(ega) | (fa).d'!tenuto!^G | !tenuto!A(bag) | (fgfe) |!>(! (dfad')!>)! | %50
!<(! !tenuto!A(d'c'=b)!<)! |!f! .c'!tenuto!^f!tenuto!D.c' | !tenuto!G!>(!(c'ba | ^g=fed!>)! | %54
!p! .^c)!mf!(b!>(!ag | ^f_edc!>)! |!p! .B)!mf!(f'!>(!e'd') | (^c'e')(gb) | (eg)(^ce)!>)! | %59
!mp! (A!<(!^cea) | (^c'e').g.e' | (fad')!<)!!f!.f | %62
[Q:1/4=120]{!fermata!A} !fermata!f2 !fermata!e2 | !fermata!d2[Q:1/4=190]!>(! (FA) |1 %64
 .d(FE).^c!>)! |!mf! d4 :|2[Q:1/4=130]!<(! .d[Q:1/4=120](F[Q:1/4=100]E).^c | %67
[Q:1/4=40] (!>!D/A/!<)!!f! !fermata!d3) |] %68

